X: 33688
T: Ramnee Ceilidh
R: reel
M: 4/4
K: Dmajor
|:dBBd A2BA|feef ~e2de|faaf ~e2fe|d2ed BdBA|
dBBd A2BA|feef e{g}ede|faaf e{g}efe|1 dBAB d2d2:|2 dBAB d3e||
|:~f3A Bde2|eABd edBd|~f3A Bde2|efgf edBd|
~f3A Bde2|eABd edBd|faaf e2fe|1 dBAB d2de:|2 dBAB d4||

